src/pages/settings/assets/openmoji_emoji.svg

<svg width="168" height="48" viewBox="0 0 168 48" fill="none" xmlns="http://www.w3.org/2000/svg">
<path d="M24.0003 39.3334C32.4687 39.3334 39.3337 32.4684 39.3337 24.0001C39.3337 15.5317 32.4687 8.66675 24.0003 8.66675C15.532 8.66675 8.66699 15.5317 8.66699 24.0001C8.66699 32.4684 15.532 39.3334 24.0003 39.3334Z" fill="#FCEA2B"/>
<path d="M33.7297 27.76C33.7378 28.7865 33.5406 29.8042 33.1497 30.7533C24.8231 32.7733 16.1964 30.98 14.8231 30.6667C14.4505 29.7432 14.2626 28.7557 14.2697 27.76H14.3431C14.3431 27.76 24.2097 30.1533 33.6031 27.8067L33.7297 27.76Z" fill="white"/>
<path d="M33.1499 30.7534C31.9566 33.6001 28.9166 35.5734 24.0232 35.5734C19.0832 35.5734 16.0032 33.5534 14.8232 30.6667C16.1966 30.9801 24.8232 32.7734 33.1499 30.7534Z" fill="#EA5A47"/>
<path d="M24.0003 39.3334C32.4687 39.3334 39.3337 32.4684 39.3337 24.0001C39.3337 15.5317 32.4687 8.66675 24.0003 8.66675C15.532 8.66675 8.66699 15.5317 8.66699 24.0001C8.66699 32.4684 15.532 39.3334 24.0003 39.3334Z" stroke="black" stroke-width="1.33333" stroke-linecap="round" stroke-linejoin="round"/>
<path d="M19.0459 24.1479C20.1505 24.1479 21.0459 22.535 21.0459 20.5454C21.0459 18.5558 20.1505 16.9429 19.0459 16.9429C17.9413 16.9429 17.0459 18.5558 17.0459 20.5454C17.0459 22.535 17.9413 24.1479 19.0459 24.1479Z" fill="black"/>
<path d="M28.9541 24.1501C30.0587 24.1501 30.9541 22.5372 30.9541 20.5476C30.9541 18.558 30.0587 16.9451 28.9541 16.9451C27.8495 16.9451 26.9541 18.558 26.9541 20.5476C26.9541 22.5372 27.8495 24.1501 28.9541 24.1501Z" fill="black"/>
<path d="M33.7297 27.76C33.7378 28.7865 33.5406 29.8042 33.1497 30.7533C24.8231 32.7733 16.1964 30.98 14.8231 30.6667C14.4505 29.7432 14.2626 28.7557 14.2697 27.76H14.3431C14.3431 27.76 24.2097 30.1533 33.6031 27.8067L33.7297 27.76Z" stroke="black" stroke-width="1.33333" stroke-linecap="round" stroke-linejoin="round"/>
<path d="M33.1499 30.7534C31.9566 33.6001 28.9166 35.5734 24.0232 35.5734C19.0832 35.5734 16.0032 33.5534 14.8232 30.6667C16.1966 30.9801 24.8232 32.7734 33.1499 30.7534Z" stroke="black" stroke-width="1.33333" stroke-linecap="round" stroke-linejoin="round"/>
<path d="M78.1115 45.3335H62.667V37.5557L72.667 32.5557C70.9314 38.2468 77.6371 42.2603 81.0003 40.3335L78.1115 45.3335Z" fill="#92D3F5"/>
<path d="M90.8605 45.3332H106.305V37.5554L96.305 32.5554C98.0406 38.2466 91.3349 42.2601 87.9717 40.3332L90.8605 45.3332Z" fill="#92D3F5"/>
<path d="M79.8873 40.7393C75.7701 40.7393 72.4385 37.5467 72.4385 33.6014C76.8551 30.9209 77.2922 24.3749 77.7505 20.6249C78.0839 18.6979 78.945 18.6979 79.2505 16.7708L81.0005 4.89821C81.4172 2.66661 84.0532 2.89447 84.4867 4.66661V35.9444C84.4867 37.2341 82.5561 38.2777 81.8895 38.2777C81.3477 38.2777 79.8873 40.2974 79.8873 40.7393Z" fill="#FCEA2B"/>
<path d="M89.0856 40.7393C93.2029 40.7393 96.5345 37.5467 96.5345 33.6014C92.1178 30.9209 91.6807 24.3749 91.2224 20.6249C90.8891 18.6979 90.0279 18.6979 89.7224 16.7708L87.9724 4.89826C87.5557 2.6666 84.9198 2.89446 84.4863 4.6666V35.9444C84.4863 37.2341 86.4169 38.2777 87.0835 38.2777C87.6252 38.2777 89.0856 40.2974 89.0856 40.7393Z" fill="#FCEA2B"/>
<path d="M78.1105 45.3335H62.666V37.5557L72.666 32.5557C70.9304 38.2468 77.6361 42.2603 80.9993 40.3335L78.1105 45.3335Z" stroke="black" stroke-width="1.33333" stroke-miterlimit="10" stroke-linecap="round" stroke-linejoin="round"/>
<path d="M79.8864 40.7395C79.8864 40.2977 81.3468 38.278 81.8884 38.278C82.5551 38.278 84.4856 37.2344 84.4856 35.9446V4.66685C84.0522 2.89472 81.4162 2.66685 80.9996 4.89845L79.2496 16.771C78.944 18.6981 78.0829 18.6981 77.7496 20.6251C77.2912 24.3751 76.8542 30.9211 72.4375 33.6016" stroke="black" stroke-width="1.33333" stroke-miterlimit="10" stroke-linecap="round" stroke-linejoin="round"/>
<path d="M90.8605 45.3335H106.305V37.5557L96.305 32.5557C98.0406 38.2468 91.3349 42.2603 87.9717 40.3335L90.8605 45.3335Z" stroke="black" stroke-width="1.33333" stroke-miterlimit="10" stroke-linecap="round" stroke-linejoin="round"/>
<path d="M89.0846 40.7395C89.0846 40.2977 87.6242 38.278 87.0826 38.278C86.4159 38.278 84.4854 37.2344 84.4854 35.9446V4.66685C84.9188 2.89472 87.5548 2.66685 87.9715 4.89845L89.7215 16.771C90.027 18.6981 90.8882 18.6981 91.2215 20.6251C91.6798 24.3751 92.1169 30.9211 96.5336 33.6016" stroke="black" stroke-width="1.33333" stroke-miterlimit="10" stroke-linecap="round" stroke-linejoin="round"/>
<path d="M137.453 13.4539L145.833 21.8333L154.212 30.2128L139.859 36.1865L125.506 42.1602L131.48 27.8071L137.453 13.4539Z" fill="#F1B31C"/>
<path d="M146.666 23.3334L137.128 13.7795L130.927 28.3597L124.727 42.9397L146.666 23.3334Z" fill="#FCEA2B"/>
<path d="M130.148 30.1899L137.523 37.5646L133.836 39.0656L128.638 33.8675L130.148 30.1899Z" fill="#EA5A47"/>
<path d="M131.562 36.8317L133.836 39.0656L137.523 37.5646L134.323 34.364L131.562 36.8317Z" fill="#D22F27"/>
<path d="M133.869 21.4417L138.333 25.9061L146.133 33.7055L141.951 35.6145L136.503 30.1665L132.1 25.7631L133.869 21.4417Z" fill="#EA5A47"/>
<path d="M137.69 31.3541L141.951 35.6143L146.133 33.7054L140.907 28.4797L137.69 31.3541Z" fill="#D22F27"/>
<path d="M140.197 10.9524C140.933 10.9524 141.53 10.3642 141.53 9.63857C141.53 8.91295 140.933 8.32471 140.197 8.32471C139.46 8.32471 138.863 8.91295 138.863 9.63857C138.863 10.3642 139.46 10.9524 140.197 10.9524Z" fill="#8967AA"/>
<path d="M160.197 13.6192C160.933 13.6192 161.53 13.0309 161.53 12.3053C161.53 11.5797 160.933 10.9915 160.197 10.9915C159.46 10.9915 158.863 11.5797 158.863 12.3053C158.863 13.0309 159.46 13.6192 160.197 13.6192Z" fill="#F1B31C"/>
<path d="M158.197 27.6192C158.933 27.6192 159.53 27.031 159.53 26.3053C159.53 25.5797 158.933 24.9915 158.197 24.9915C157.46 24.9915 156.863 25.5797 156.863 26.3053C156.863 27.031 157.46 27.6192 158.197 27.6192Z" fill="#D22F27"/>
<path d="M153.775 30.4264L153.887 30.5385L139.307 36.7391L124.727 42.9398L130.927 28.3597L137.128 13.7795" stroke="black" stroke-width="1.33333" stroke-miterlimit="10" stroke-linecap="round" stroke-linejoin="round"/>
<path d="M137.2 13.8523L145.507 22.1593L153.775 30.4267" stroke="black" stroke-width="1.33333" stroke-miterlimit="10" stroke-linecap="round" stroke-linejoin="round"/>
<path d="M137.128 13.7795L137.2 13.852" stroke="black" stroke-width="1.33333" stroke-miterlimit="10" stroke-linecap="round" stroke-linejoin="round"/>
<path d="M150.993 4.91162C151.149 5.21075 151.261 5.54029 151.319 5.89362C151.62 7.72515 150.355 9.50302 148.493 9.86462" stroke="black" stroke-width="1.33333" stroke-miterlimit="10" stroke-linecap="round" stroke-linejoin="round"/>
<path d="M148.622 9.85107C148.285 9.87667 147.946 9.95594 147.616 10.0937C145.903 10.8079 145.064 12.8224 145.742 14.5932" stroke="black" stroke-width="1.33333" stroke-miterlimit="10" stroke-linecap="round" stroke-linejoin="round"/>
<path d="M161.195 17.8113C161.129 18.1424 161.01 18.4693 160.833 18.7809C159.919 20.3959 157.818 20.9869 156.142 20.1009" stroke="black" stroke-width="1.33333" stroke-miterlimit="10" stroke-linecap="round" stroke-linejoin="round"/>
<path d="M156.249 20.1707C155.971 19.9795 155.658 19.8287 155.314 19.7287C153.532 19.2104 151.615 20.2532 151.032 22.0578" stroke="black" stroke-width="1.33333" stroke-miterlimit="10" stroke-linecap="round" stroke-linejoin="round"/>
</svg>

<svg xmlns="http://www.w3.org/2000/svg" xmlns:xlink="http://www.w3.org/1999/xlink" width="168" height="48" fill="none" xmlns:v="https://vecta.io/nano"><style><![CDATA[.B{stroke:#000}.C{stroke-width:1.333}.D{stroke-linejoin:round}.E{fill:#fcea2b}.F{fill:#ea5a47}.G{stroke-linecap:round}.H{fill:#d22f27}.I{stroke-miterlimit:10}]]></style><use xlink:href="#B" class="E"/><use xlink:href="#C" fill="#fff"/><use xlink:href="#D" class="F"/><use xlink:href="#B" class="B C D"/><path d="M19.046 24.148c1.105 0 2-1.613 2-3.602s-.895-3.602-2-3.602-2 1.613-2 3.602.895 3.602 2 3.602zm9.908.002c1.105 0 2-1.613 2-3.602s-.895-3.602-2-3.602-2 1.613-2 3.602.895 3.602 2 3.602z" fill="#000"/><g class="B C D"><use xlink:href="#C"/><use xlink:href="#D"/></g><path d="M78.112 45.334H62.667v-7.778l10-5c-1.736 5.691 4.97 9.705 8.333 7.778l-2.889 5zm12.749-.001h15.445v-7.778l-10-5c1.736 5.691-4.97 9.705-8.333 7.778l2.889 5z" fill="#92d3f5"/><g class="E"><path d="M79.887 40.739c-4.117 0-7.449-3.193-7.449-7.138 4.417-2.68 4.854-9.226 5.312-12.976.333-1.927 1.194-1.927 1.5-3.854l1.75-11.873c.417-2.232 3.053-2.004 3.486-.232v31.278c0 1.29-1.931 2.333-2.597 2.333-.542 0-2.002 2.02-2.002 2.462z"/><path d="M89.086 40.739c4.117 0 7.449-3.193 7.449-7.138-4.417-2.68-4.854-9.226-5.312-12.976-.333-1.927-1.194-1.927-1.5-3.854l-1.75-11.873c-.417-2.232-3.053-2.004-3.486-.232v31.278c0 1.29 1.931 2.333 2.597 2.333.542 0 2.002 2.02 2.002 2.462z"/></g><g class="B C D I"><path d="M78.111 45.334H62.666v-7.778l10-5c-1.736 5.691 4.97 9.705 8.333 7.778l-2.889 5z"/><path d="M79.886 40.74c0-.442 1.46-2.462 2.002-2.462.667 0 2.597-1.044 2.597-2.333V4.667c-.433-1.772-3.069-2-3.486.232l-1.75 11.873c-.306 1.927-1.167 1.927-1.5 3.854-.458 3.75-.895 10.296-5.312 12.976" class="G"/><path d="M90.861 45.334h15.445v-7.778l-10-5c1.736 5.691-4.97 9.705-8.333 7.778l2.889 5z"/><path d="M89.085 40.74c0-.442-1.46-2.462-2.002-2.462-.667 0-2.597-1.044-2.597-2.333V4.667c.433-1.772 3.069-2 3.486.232l1.75 11.873c.305 1.927 1.167 1.927 1.5 3.854.458 3.75.895 10.296 5.312 12.976" class="G"/></g><path d="M137.453 13.454l8.38 8.379 8.379 8.38-14.353 5.974-14.353 5.974 5.974-14.353 5.973-14.353z" fill="#f1b31c"/><path d="M146.666 23.333l-9.538-9.554-6.201 14.58-6.2 14.58 21.939-19.606z" class="E"/><path d="M130.148 30.19l7.375 7.375-3.687 1.501-5.198-5.198 1.51-3.678z" class="F"/><path d="M131.562 36.832l2.274 2.234 3.687-1.501-3.2-3.201-2.761 2.468z" class="H"/><path d="M133.869 21.442l4.464 4.464 7.8 7.799-4.182 1.909-5.448-5.448-4.403-4.403 1.769-4.321z" class="F"/><path d="M137.69 31.354l4.261 4.26 4.182-1.909-5.226-5.226-3.217 2.874z" class="H"/><use xlink:href="#E" fill="#8967aa"/><use xlink:href="#E" x="20" y="2.667" fill="#f1b31c"/><use xlink:href="#E" x="18" y="16.667" class="H"/><g class="B C D G I"><path d="M153.775 30.426l.112.112-14.58 6.201-14.58 6.201 12.401-29.16"/><path d="M137.2 13.852l16.575 16.574M137.128 13.78l.072.072m13.793-8.94a3.26 3.26 0 0 1 .326.982c.301 1.832-.964 3.609-2.826 3.971"/><path d="M148.622 9.851a3.25 3.25 0 0 0-1.006.243c-1.713.714-2.552 2.729-1.874 4.499m15.453 3.218a3.24 3.24 0 0 1-.362.97c-.914 1.615-3.015 2.206-4.691 1.32m.107.07a3.24 3.24 0 0 0-.935-.442c-1.782-.518-3.699.524-4.282 2.329"/></g><defs ><path id="B" d="M24 39.333c8.468 0 15.333-6.865 15.333-15.333S32.469 8.667 24 8.667 8.667 15.532 8.667 24 15.532 39.333 24 39.333z"/><path id="C" d="M33.73 27.76a7.7 7.7 0 0 1-.58 2.993c-8.327 2.02-16.953.227-18.327-.087-.373-.923-.56-1.911-.553-2.907h.073s9.867 2.393 19.26.047l.127-.047z"/><path id="D" d="M33.15 30.753c-1.193 2.847-4.233 4.82-9.127 4.82-4.94 0-8.02-2.02-9.2-4.907 1.373.313 10 2.107 18.327.087z"/><path id="E" d="M140.197 10.952c.736 0 1.333-.588 1.333-1.314s-.597-1.314-1.333-1.314-1.334.588-1.334 1.314.597 1.314 1.334 1.314z"/></defs></svg>
